resources/icons/16px/group-item.svg

<svg width="16" height="16" viewBox="0 0 16 16" fill="none" xmlns="http://www.w3.org/2000/svg">
<path d="M8.60199 4.53553C8.21147 4.14501 8.21147 3.51184 8.60199 3.12131L11.4304 0.292893C11.8209 -0.0976311 12.4541 -0.0976311 12.8446 0.292893L15.6731 3.12131C16.0636 3.51184 16.0636 4.14501 15.6731 4.53553L12.8446 7.36396C12.4541 7.75448 11.8209 7.75448 11.4304 7.36396L8.60199 4.53553Z" fill="#111418"/>
<path d="M1 0.00480647H6C6.55228 0.00480647 7 0.452522 7 1.00481V6.00481C7 6.55709 6.55228 7.00481 6 7.00481H1C0.447715 7.00481 0 6.55709 0 6.00481V1.00481C0 0.452522 0.447715 0.00480647 1 0.00480647ZM2 2.00481V5.00481H5V2.00481H2Z" fill="#111418"/>
<path d="M10 9.00481H15C15.5523 9.00481 16 9.45252 16 10.0048V15.0048C16 15.5571 15.5523 16.0048 15 16.0048H10C9.44771 16.0048 9 15.5571 9 15.0048V10.0048C9 9.45252 9.44772 9.00481 10 9.00481ZM11 11.0048V14.0048H14V11.0048H11Z" fill="#111418"/>
<path d="M1 9.00481H6C6.55228 9.00481 7 9.45252 7 10.0048V15.0048C7 15.5571 6.55228 16.0048 6 16.0048H1C0.447715 16.0048 0 15.5571 0 15.0048V10.0048C0 9.45252 0.447715 9.00481 1 9.00481ZM2 11.0048V14.0048H5V11.0048H2Z" fill="#111418"/>
</svg>

<svg xmlns="http://www.w3.org/2000/svg" viewBox="0 0 16 16">
  <path d="M8.602 4.536a1 1 0 0 1 0-1.415L11.43.293a1 1 0 0 1 1.415 0l2.828 2.828a1 1 0 0 1 0 1.415l-2.828 2.828a1 1 0 0 1-1.415 0zM1 .005h5a1 1 0 0 1 1 1v5a1 1 0 0 1-1 1H1a1 1 0 0 1-1-1v-5a1 1 0 0 1 1-1m1 2v3h3v-3zM10 9.005h5a1 1 0 0 1 1 1v5a1 1 0 0 1-1 1h-5a1 1 0 0 1-1-1v-5a1 1 0 0 1 1-1m1 2v3h3v-3zM1 9.005h5a1 1 0 0 1 1 1v5a1 1 0 0 1-1 1H1a1 1 0 0 1-1-1v-5a1 1 0 0 1 1-1m1 2v3h3v-3z"/>
</svg>
